packages/foundations/assets/icons/functional/images/security/lock_open.svg

<svg xmlns="http://www.w3.org/2000/svg" width="32" height="32" fill="none"><path fill="#1A1C1F" fill-rule="evenodd" d="M15.04 2.561c-2.618.367-4.87 2.193-5.68 4.606-.297.886-.313 1.035-.344 3.26l-.029 2.08-.347.034c-1.16.116-2.153.948-2.51 2.105l-.13.421V26.96l.118.373a3.09 3.09 0 0 0 2.173 2.079c.277.071 1.276.081 7.708.081 7.311 0 7.394-.001 7.789-.11.219-.061.531-.185.692-.276.412-.233.951-.796 1.161-1.214.377-.747.353-.326.372-6.586.011-3.515-.002-5.818-.035-6.087-.147-1.207-.819-2.079-1.951-2.532l-.32-.128-6.347-.027-6.347-.026.005-1.947c.005-1.821.013-1.974.121-2.373.478-1.765 1.815-3.065 3.628-3.528.638-.163 1.61-.182 2.273-.045 1.944.403 3.393 1.816 3.846 3.752.112.479.175.644.302.789.494.563 1.302.465 1.641-.2.125-.245.131-.5.024-1.011-.487-2.313-2.264-4.287-4.56-5.065-.885-.3-2.353-.444-3.253-.318m8.498 12.106c.115.077.253.244.33.397l.132.264-.001 5.682c-.001 5.399-.006 5.694-.099 5.899-.12.263-.37.482-.635.555-.132.037-2.561.056-7.242.056-7.824 0-7.429.018-7.749-.346a1.2 1.2 0 0 1-.221-.386c-.041-.142-.054-1.897-.042-5.935l.016-5.733.121-.195a1 1 0 0 1 .347-.307l.225-.112 7.311.014 7.31.013zm-7.985 2.882a3 3 0 0 0-.521.22c-1.205.642-1.375 2.319-.329 3.237l.282.247.001 1.167c.001 1.321.034 1.507.324 1.797.519.518 1.428.29 1.638-.411.043-.143.066-.62.066-1.386l.001-1.167.289-.254c.496-.434.767-1.161.667-1.788a1.995 1.995 0 0 0-1.839-1.691 2.5 2.5 0 0 0-.579.029"/></svg>

<svg width="32" height="32" viewBox="0 0 32 32" fill="none" xmlns="http://www.w3.org/2000/svg"><path d="M15.040 2.561 C 12.422 2.928,10.170 4.754,9.360 7.167 C 9.063 8.053,9.047 8.202,9.016 10.427 L 8.987 12.507 8.640 12.541 C 7.480 12.657,6.487 13.489,6.130 14.646 L 6.000 15.067 6.000 21.013 L 6.000 26.960 6.118 27.333 C 6.445 28.366,7.266 29.151,8.291 29.412 C 8.568 29.483,9.567 29.493,15.999 29.493 C 23.310 29.493,23.393 29.492,23.788 29.383 C 24.007 29.322,24.319 29.198,24.480 29.107 C 24.892 28.874,25.431 28.311,25.641 27.893 C 26.018 27.146,25.994 27.567,26.013 21.307 C 26.024 17.792,26.011 15.489,25.978 15.220 C 25.831 14.013,25.159 13.141,24.027 12.688 L 23.707 12.560 17.360 12.533 L 11.013 12.507 11.018 10.560 C 11.023 8.739,11.031 8.586,11.139 8.187 C 11.617 6.422,12.954 5.122,14.767 4.659 C 15.405 4.496,16.377 4.477,17.040 4.614 C 18.984 5.017,20.433 6.430,20.886 8.366 C 20.998 8.845,21.061 9.010,21.188 9.155 C 21.682 9.718,22.490 9.620,22.829 8.955 C 22.954 8.710,22.960 8.455,22.853 7.944 C 22.366 5.631,20.589 3.657,18.293 2.879 C 17.408 2.579,15.940 2.435,15.040 2.561 M23.538 14.667 C 23.653 14.744,23.791 14.911,23.868 15.064 L 24.000 15.328 23.999 21.010 C 23.998 26.409,23.993 26.704,23.900 26.909 C 23.780 27.172,23.530 27.391,23.265 27.464 C 23.133 27.501,20.704 27.520,16.023 27.520 C 8.199 27.520,8.594 27.538,8.274 27.174 C 8.185 27.072,8.085 26.898,8.053 26.788 C 8.012 26.646,7.999 24.891,8.011 20.853 L 8.027 15.120 8.148 14.925 C 8.217 14.814,8.366 14.682,8.495 14.618 L 8.720 14.506 16.031 14.520 L 23.341 14.533 23.538 14.667 M15.553 17.549 C 15.439 17.578,15.205 17.677,15.032 17.769 C 13.827 18.411,13.657 20.088,14.703 21.006 L 14.985 21.253 14.986 22.420 C 14.987 23.741,15.020 23.927,15.310 24.217 C 15.829 24.735,16.738 24.507,16.948 23.806 C 16.991 23.663,17.014 23.186,17.014 22.420 L 17.015 21.253 17.304 20.999 C 17.800 20.565,18.071 19.838,17.971 19.211 C 17.822 18.278,17.059 17.576,16.132 17.520 C 15.927 17.508,15.667 17.521,15.553 17.549 " fill="#1A1C1F" stroke="none" fill-rule="evenodd"></path></svg>
